actions/22x22-dark/format-text-direction-rtl.svg

<svg xmlns="http://www.w3.org/2000/svg" viewBox="0 0 22 22">
 <defs id="defs3051">
   <style type="text/css" id="current-color-scheme">
     .ColorScheme-Text {
       color:#f2f2f2;
     }
     </style>
 </defs>
   <path
      style="fill:currentColor;fill-opacity:1;stroke:none"
      d="m3 3v1h10v-1zm11 0v5h5v-5zm-4 2v1h3v-1zm-1 4v1h10v-1zm6 2v1h4v-1zm-6 4v1h10v-1zm3 2v1h7v-1zm-3 1v1h2v-1z"
      class="ColorScheme-Text" />
</svg>

<svg xmlns="http://www.w3.org/2000/svg" viewBox="0 0 22 22">
  <defs id="defs3051">
    <style type="text/css" id="current-color-scheme">
      .ColorScheme-Text {
        color:#f2f2f2;
      }
      </style>
  </defs>
 <path 
    style="fill:currentColor;fill-opacity:1;stroke:none" 
    d="M 3 3 L 3 4 L 13 4 L 13 3 L 3 3 z M 14 3 L 14 8 L 19 8 L 19 3 L 14 3 z M 10 5 L 10 6 L 13 6 L 13 5 L 10 5 z M 9 9 L 9 10 L 19 10 L 19 9 L 9 9 z M 15 11 L 15 12 L 19 12 L 19 11 L 15 11 z M 9 15 L 9 16 L 19 16 L 19 15 L 9 15 z M 12 17 L 12 18 L 19 18 L 19 17 L 12 17 z M 9 18 L 9 19 L 11 19 L 11 18 L 9 18 z "
    class="ColorScheme-Text"
    />  
</svg>
